CM2T1/251/aimg/bicin.svg

<svg clip-rule="evenodd" fill-rule="evenodd" stroke-linecap="round" stroke-linejoin="round" viewBox="0 0 200 200" xmlns="http://www.w3.org/2000/svg"><g stroke-linecap="butt" stroke-linejoin="round"><g fill="#c0c0c0" stroke="#c0c0c0"><path d="m55.4836 120.42c3.9834-5.303 10.6273-8.834 15.7444-11.782-2.4728 4.44-11.4841 8.951-15.2568 12.219"/><path d="m51.008 116.23c-.4929-3.209-3.483-14.191-1.4729-16.858l.3032-.0815c3.0807 4.3425 2.0439 11.8635 2.6303 16.9395"/><path d="m46.8033 121.9c-3.4306-2.524-14.3384-9.617-14.5851-14.054l.2886-.62c1.5749-.696 14.3657 12.117 14.8205 14.111"/><path d="m44.6718 126.717c-5.4701 2.75-15.4012-.395-21.3072-.406l-.2402-1.549c3.4639-1.839 18.5835-.916 21.5474.574"/><path d="m46.1347 132.716c-3.4483 3.501-6.4717 7.305-9.7643 10.474-.8749.843-2.1905.354-2.9821 1.205 3.8949-4.185 6.0239-9.876 11.6443-12.567"/><path d="m54.6028 133.073c1.0481 5.414 1.5051 11.658 1.0997 17.029l-.634.341c-3.4217-.755-1.8721-13.697-3.0034-16.279"/><path d="m58.4469 127.775c2.1586 1.194 14.7055 9.605 15.3644 10.988l-.1516.977c-3.5209 2.302-13.4912-8.05-16.0928-10.074"/><path d="m58.3008 123.738c2.257-.807 17.5826-3.502 19.3067-2.504l.2342 1.258c-3.843 2.834-14.6241 3.235-19.2169 2.639"/><path d="m55.4836 120.42c3.9834-5.303 10.6273-8.834 15.7444-11.782-2.4728 4.44-11.4841 8.951-15.2568 12.219"/><path d="m51.008 116.23c-.4929-3.209-3.483-14.191-1.4729-16.858l.3032-.0815c3.0807 4.3425 2.0439 11.8635 2.6303 16.9395"/><path d="m46.8033 121.9c-3.4306-2.524-14.3384-9.617-14.5851-14.054l.2886-.62c1.5749-.696 14.3657 12.117 14.8205 14.111"/><path d="m44.6718 126.717c-5.4701 2.75-15.4012-.395-21.3072-.406l-.2402-1.549c3.4639-1.839 18.5835-.916 21.5474.574"/><path d="m46.1347 132.716c-3.4483 3.501-6.4717 7.305-9.7643 10.474-.8749.843-2.1905.354-2.9821 1.205 3.8949-4.185 6.0239-9.876 11.6443-12.567"/><path d="m54.6028 133.073c1.0481 5.414 1.5051 11.658 1.0997 17.029l-.634.341c-3.4217-.755-1.8721-13.697-3.0034-16.279"/><path d="m58.4469 127.775c2.1586 1.194 14.7055 9.605 15.3644 10.988l-.1516.977c-3.5209 2.302-13.4912-8.05-16.0928-10.074"/><path d="m58.3008 123.738c2.257-.807 17.5826-3.502 19.3067-2.504l.2342 1.258c-3.843 2.834-14.6241 3.235-19.2169 2.639"/></g><path d="m63.0492 99.7505c-10.222-.6753-14.3503-.1943-24.2168 6.1105-27.7743 17.749-8.5144 46.816 18.3271 41.596 32.7162-6.362 20.1277-58.1513-10.8348-44.759l-2.9709-4.5591c22.5311-25.6287 58.7002 17.4601 34.772 46.1111-3.6216 4.336-7.046 7.655-12.3081 9.22-6.0613 1.803-11.8493 2.906-18.1209 1.755-1.9935-.366-13.5329-3.886-16.4887-5.855-30.493035-20.306 7.0975-62.4235 33.4653-53.2463" stroke="#000"/><path d="m51.2293 122.355c-1.4836.466-3.9152 3.275-2.6853 5.131 1.6759 2.527 3.8605-.678 3.996-2.213.0938-1.062-3.5537-.161-4.2595-2.355l-1.6033-2.39c2.9191-12.508 20.6858 1.468 9.9118 10.93-1.6654 1.463-3.6999 3.259-6.0387 3.177-12.2713-.432-8.1724-20.378 1.5894-16.345" stroke="#000"/><path d="m63.0492 99.7505c-10.222-.6753-14.3503-.1943-24.2168 6.1105-27.7743 17.749-8.5144 46.816 18.3271 41.596 32.7162-6.362 20.1277-58.1513-10.8348-44.759l-2.9709-4.5591c22.5311-25.6287 58.7002 17.4601 34.772 46.1111-3.6216 4.336-7.046 7.655-12.3081 9.22-6.0613 1.803-11.8493 2.906-18.1209 1.755-1.9935-.366-13.5329-3.886-16.4887-5.855-30.493035-20.306 7.0975-62.4235 33.4653-53.2463" stroke="#000"/><path d="m51.2293 122.355c-1.4836.466-3.9152 3.275-2.6853 5.131 1.6759 2.527 3.8605-.678 3.996-2.213.0938-1.062-3.5537-.161-4.2595-2.355l-1.6033-2.39c2.9191-12.508 20.6858 1.468 9.9118 10.93-1.6654 1.463-3.6999 3.259-6.0387 3.177-12.2713-.432-8.1724-20.378 1.5894-16.345" stroke="#000"/></g><g stroke-linecap="butt" stroke-linejoin="round"><g fill="#c0c0c0" stroke="#c0c0c0"><path d="m148.106 125.429c3.983-5.303 10.627-8.834 15.744-11.783-2.472 4.441-11.484 8.952-15.256 12.219"/><path d="m143.63 121.239c-.492-3.209-3.483-14.191-1.472-16.858l.303-.082c3.08 4.343 2.044 11.864 2.63 16.94"/><path d="m139.426 126.908c-3.431-2.523-14.339-9.616-14.585-14.054l.288-.62c1.575-.695 14.366 12.118 14.821 14.111"/><path d="m137.294 131.725c-5.47 2.75-15.401-.394-21.307-.405l-.24-1.549c3.464-1.839 18.583-.916 21.547.574"/><path d="m138.757 137.724c-3.448 3.502-6.472 7.306-9.764 10.475-.875.842-2.191.354-2.982 1.204 3.895-4.184 6.024-9.875 11.644-12.567"/><path d="m147.225 138.082c1.048 5.414 1.505 11.658 1.1 17.029l-.634.341c-3.422-.755-1.872-13.698-3.003-16.279"/><path d="m151.069 132.784c2.159 1.194 14.706 9.605 15.365 10.988l-.152.977c-3.521 2.302-13.491-8.051-16.093-10.074"/><path d="m150.923 128.747c2.257-.808 17.583-3.502 19.307-2.505l.234 1.259c-3.843 2.833-14.624 3.235-19.217 2.639"/><path d="m148.106 125.429c3.983-5.303 10.627-8.834 15.744-11.783-2.472 4.441-11.484 8.952-15.256 12.219"/><path d="m143.63 121.239c-.492-3.209-3.483-14.191-1.472-16.858l.303-.082c3.08 4.343 2.044 11.864 2.63 16.94"/><path d="m139.426 126.908c-3.431-2.523-14.339-9.616-14.585-14.054l.288-.62c1.575-.695 14.366 12.118 14.821 14.111"/><path d="m137.294 131.725c-5.47 2.75-15.401-.394-21.307-.405l-.24-1.549c3.464-1.839 18.583-.916 21.547.574"/><path d="m138.757 137.724c-3.448 3.502-6.472 7.306-9.764 10.475-.875.842-2.191.354-2.982 1.204 3.895-4.184 6.024-9.875 11.644-12.567"/><path d="m147.225 138.082c1.048 5.414 1.505 11.658 1.1 17.029l-.634.341c-3.422-.755-1.872-13.698-3.003-16.279"/><path d="m151.069 132.784c2.159 1.194 14.706 9.605 15.365 10.988l-.152.977c-3.521 2.302-13.491-8.051-16.093-10.074"/><path d="m150.923 128.747c2.257-.808 17.583-3.502 19.307-2.505l.234 1.259c-3.843 2.833-14.624 3.235-19.217 2.639"/></g><path d="m155.672 104.759c-10.222-.675-14.351-.194-24.217 6.111-27.774 17.748-8.515 46.815 18.327 41.596 32.716-6.363 20.128-58.1516-10.835-44.759l-2.971-4.559c22.531-25.6292 58.701 17.46 34.772 46.111-3.621 4.336-7.046 7.654-12.308 9.22-6.061 1.803-11.849 2.905-18.121 1.754-1.993-.366-13.533-3.886-16.488-5.854-30.4935-20.306 7.097-62.4239 33.465-53.247" stroke="#000"/><path d="m143.852 127.363c-1.484.466-3.915 3.276-2.686 5.131 1.676 2.528 3.861-.677 3.996-2.212.094-1.063-3.553-.161-4.259-2.356l-1.603-2.389c2.919-12.509 20.685 1.468 9.911 10.93-1.665 1.463-3.699 3.259-6.038 3.176-12.272-.431-8.173-20.377 1.589-16.344" stroke="#000"/><path d="m155.672 104.759c-10.222-.675-14.351-.194-24.217 6.111-27.774 17.748-8.515 46.815 18.327 41.596 32.716-6.363 20.128-58.1516-10.835-44.759l-2.971-4.559c22.531-25.6292 58.701 17.46 34.772 46.111-3.621 4.336-7.046 7.654-12.308 9.22-6.061 1.803-11.849 2.905-18.121 1.754-1.993-.366-13.533-3.886-16.488-5.854-30.4935-20.306 7.097-62.4239 33.465-53.247" stroke="#000"/><path d="m143.852 127.363c-1.484.466-3.915 3.276-2.686 5.131 1.676 2.528 3.861-.677 3.996-2.212.094-1.063-3.553-.161-4.259-2.356l-1.603-2.389c2.919-12.509 20.685 1.468 9.911 10.93-1.665 1.463-3.699 3.259-6.038 3.176-12.272-.431-8.173-20.377 1.589-16.344" stroke="#000"/></g><g><path d="m102.734 102.376-3.7219 1.696-10.7826-27.3252 3.7219-1.6953z" fill="#6b6b6b"/><path d="m84.8621 82.1717-1.578-3.9988 13.1401-5.9854 1.5779 3.9988z" fill="#3a3a3a"/></g><path d="m17.4587 116.679s16.0365-29.8986 44.5438-28.3824c14.1922.7549 25.9956 16.6074 30.9136 28.5334 3.2762 7.945 9.5899 8.719 22.6229 12.229s28.465 11.26 32.881 6.945c1.429-1.396 4.99-17.944-11.101-11.625-16.09 6.319-10.789-25.1541-9.7-25.9837 14.971-11.4019 37.934-19.8809 53.682 16.3217 0 0 5.902 1.962 5.199-4.077-.702-6.038-34.145-41.8187-50.305-28.0803l-14.613-13.4365 2.95-6.4918-4.496-1.5097-20.7966 30.0434s-21.3585-9.5112-32.4594-28.3827l2.9509-11.3229s21.3585 2.5665 28.3844-11.3229l2.3887-5.586-6.4637 1.5098s-5.0586 11.3229-23.0448 10.417c-17.9861-.9058-18.4076-12.8326-18.4076-12.8326l-8.15-.151-1.6862 9.2093s3.6534 4.9821 18.4077 9.0583l-4.4966 25.3633s-45.8861 17.9778-44.8248 37.7433c.4216 7.85 5.6207 1.811 5.6207 1.811z" fill="#ff8f00"/><g><path d="m102.938 112.625 3.765-1.581 10.055 27.643-3.765 1.581z" fill="#6b6b6b"/><path d="m120.268 133.367 1.471 4.046-13.293 5.581-1.471-4.045z" fill="#3a3a3a"/></g><path d="m103.86 62.0565c0-2.9725 7.277-5.3822 16.254-5.3822 8.976 0 10.002 3.1786 10.002 6.1511s-1.026 4.6133-10.002 4.6133c-8.977 0-16.254-2.4097-16.254-5.3822z" fill="#3a3a3a"/></svg>

<?xml version="1.0" encoding="UTF-8" standalone="no"?> <!-- Created with Vectornator for iOS (http://vectornator.io/) --><!DOCTYPE svg PUBLIC "-//W3C//DTD SVG 1.1//EN" "http://www.w3.org/Graphics/SVG/1.1/DTD/svg11.dtd">
<svg style="fill-rule:evenodd;clip-rule:evenodd;stroke-linecap:round;stroke-linejoin:round;" xmlns:vectornator="http://vectornator.io" xmlns:xlink="http://www.w3.org/1999/xlink" xmlns="http://www.w3.org/2000/svg" xml:space="preserve" version="1.1" viewBox="0 0 200 200">
<metadata>
<vectornator:setting key="DisplayWhiteBackground" value="0"/>
<vectornator:setting key="RulersVisible" value="1"/>
<vectornator:setting key="SnapToEdges" value="0"/>
<vectornator:setting key="Units" value="Pixels"/>
<vectornator:setting key="New" value="1"/>
<vectornator:setting key="DynamicGuides" value="0"/>
<vectornator:setting key="SnapToPoints" value="0"/>
<vectornator:setting key="CMYKEnabledKey" value="0"/>
<vectornator:setting key="SnapToGrid" value="0"/>
<vectornator:setting key="SnapToGuides" value="1"/>
<vectornator:setting key="GridSpacing" value="36"/>
</metadata>
<defs/>
<g id="Layer 1" vectornator:layerName="Layer 1">
<g opacity="1">
<path stroke="#c0c0c0" stroke-width="1" d="M55.4836+120.42C59.467+115.117+66.1109+111.586+71.228+108.638L71.228+108.638C68.7552+113.078+59.7439+117.589+55.9712+120.857" fill="#c0c0c0" stroke-linecap="butt" opacity="1" stroke-linejoin="round"/>
<path stroke="#c0c0c0" stroke-width="1" d="M51.008+116.23C50.5151+113.021+47.525+102.039+49.5351+99.372L49.8383+99.2905C52.919+103.633+51.8822+111.154+52.4686+116.23" fill="#c0c0c0" stroke-linecap="butt" opacity="1" stroke-linejoin="round"/>
<path stroke="#c0c0c0" stroke-width="1" d="M46.8033+121.9C43.3727+119.376+32.4649+112.283+32.2182+107.846L32.5068+107.226C34.0817+106.53+46.8725+119.343+47.3273+121.337" fill="#c0c0c0" stroke-linecap="butt" opacity="1" stroke-linejoin="round"/>
<path stroke="#c0c0c0" stroke-width="1" d="M44.6718+126.717C39.2017+129.467+29.2706+126.322+23.3646+126.311L23.1244+124.762C26.5883+122.923+41.7079+123.846+44.6718+125.336" fill="#c0c0c0" stroke-linecap="butt" opacity="1" stroke-linejoin="round"/>
<path stroke="#c0c0c0" stroke-width="1" d="M46.1347+132.716C42.6864+136.217+39.663+140.021+36.3704+143.19C35.4955+144.033+34.1799+143.544+33.3883+144.395L33.3883+144.395C37.2832+140.21+39.4122+134.519+45.0326+131.828" fill="#c0c0c0" stroke-linecap="butt" opacity="1" stroke-linejoin="round"/>
<path stroke="#c0c0c0" stroke-width="1" d="M54.6028+133.073C55.6509+138.487+56.1079+144.731+55.7025+150.102L55.0685+150.443C51.6468+149.688+53.1964+136.746+52.0651+134.164" fill="#c0c0c0" stroke-linecap="butt" opacity="1" stroke-linejoin="round"/>
<path stroke="#c0c0c0" stroke-width="1" d="M58.4469+127.775C60.6055+128.969+73.1524+137.38+73.8113+138.763L73.6597+139.74C70.1388+142.042+60.1685+131.69+57.5669+129.666" fill="#c0c0c0" stroke-linecap="butt" opacity="1" stroke-linejoin="round"/>
<path stroke="#c0c0c0" stroke-width="1" d="M58.3008+123.738C60.5578+122.931+75.8834+120.236+77.6075+121.234L77.8417+122.492C73.9987+125.326+63.2176+125.727+58.6248+125.131" fill="#c0c0c0" stroke-linecap="butt" opacity="1" stroke-linejoin="round"/>
<path stroke="#c0c0c0" stroke-width="1" d="M55.4836+120.42C59.467+115.117+66.1109+111.586+71.228+108.638L71.228+108.638C68.7552+113.078+59.7439+117.589+55.9712+120.857" fill="#c0c0c0" stroke-linecap="butt" opacity="1" stroke-linejoin="round"/>
<path stroke="#c0c0c0" stroke-width="1" d="M51.008+116.23C50.5151+113.021+47.525+102.039+49.5351+99.372L49.8383+99.2905C52.919+103.633+51.8822+111.154+52.4686+116.23" fill="#c0c0c0" stroke-linecap="butt" opacity="1" stroke-linejoin="round"/>
<path stroke="#c0c0c0" stroke-width="1" d="M46.8033+121.9C43.3727+119.376+32.4649+112.283+32.2182+107.846L32.5068+107.226C34.0817+106.53+46.8725+119.343+47.3273+121.337" fill="#c0c0c0" stroke-linecap="butt" opacity="1" stroke-linejoin="round"/>
<path stroke="#c0c0c0" stroke-width="1" d="M44.6718+126.717C39.2017+129.467+29.2706+126.322+23.3646+126.311L23.1244+124.762C26.5883+122.923+41.7079+123.846+44.6718+125.336" fill="#c0c0c0" stroke-linecap="butt" opacity="1" stroke-linejoin="round"/>
<path stroke="#c0c0c0" stroke-width="1" d="M46.1347+132.716C42.6864+136.217+39.663+140.021+36.3704+143.19C35.4955+144.033+34.1799+143.544+33.3883+144.395L33.3883+144.395C37.2832+140.21+39.4122+134.519+45.0326+131.828" fill="#c0c0c0" stroke-linecap="butt" opacity="1" stroke-linejoin="round"/>
<path stroke="#c0c0c0" stroke-width="1" d="M54.6028+133.073C55.6509+138.487+56.1079+144.731+55.7025+150.102L55.0685+150.443C51.6468+149.688+53.1964+136.746+52.0651+134.164" fill="#c0c0c0" stroke-linecap="butt" opacity="1" stroke-linejoin="round"/>
<path stroke="#c0c0c0" stroke-width="1" d="M58.4469+127.775C60.6055+128.969+73.1524+137.38+73.8113+138.763L73.6597+139.74C70.1388+142.042+60.1685+131.69+57.5669+129.666" fill="#c0c0c0" stroke-linecap="butt" opacity="1" stroke-linejoin="round"/>
<path stroke="#c0c0c0" stroke-width="1" d="M58.3008+123.738C60.5578+122.931+75.8834+120.236+77.6075+121.234L77.8417+122.492C73.9987+125.326+63.2176+125.727+58.6248+125.131" fill="#c0c0c0" stroke-linecap="butt" opacity="1" stroke-linejoin="round"/>
<path stroke="#000000" stroke-width="1" d="M63.0492+99.7505C52.8272+99.0752+48.6989+99.5562+38.8324+105.861C11.0581+123.61+30.318+152.677+57.1595+147.457C89.8757+141.095+77.2872+89.3057+46.3247+102.698L43.3538+98.1389C65.8849+72.5102+102.054+115.599+78.1258+144.25C74.5042+148.586+71.0798+151.905+65.8177+153.47C59.7564+155.273+53.9684+156.376+47.6968+155.225C45.7033+154.859+34.1639+151.339+31.2081+149.37C0.715065+129.064+38.3056+86.9465+64.6734+96.1237" fill="#000000" stroke-linecap="butt" opacity="1" stroke-linejoin="round"/>
<path stroke="#000000" stroke-width="1" d="M51.2293+122.355C49.7457+122.821+47.3141+125.63+48.544+127.486C50.2199+130.013+52.4045+126.808+52.54+125.273C52.6338+124.211+48.9863+125.112+48.2805+122.918L46.6772+120.528C49.5963+108.02+67.363+121.996+56.589+131.458C54.9236+132.921+52.8891+134.717+50.5503+134.635C38.279+134.203+42.3779+114.257+52.1397+118.29" fill="#000000" stroke-linecap="butt" opacity="1" stroke-linejoin="round"/>
<path stroke="#000000" stroke-width="1" d="M63.0492+99.7505C52.8272+99.0752+48.6989+99.5562+38.8324+105.861C11.0581+123.61+30.318+152.677+57.1595+147.457C89.8757+141.095+77.2872+89.3057+46.3247+102.698L43.3538+98.1389C65.8849+72.5102+102.054+115.599+78.1258+144.25C74.5042+148.586+71.0798+151.905+65.8177+153.47C59.7564+155.273+53.9684+156.376+47.6968+155.225C45.7033+154.859+34.1639+151.339+31.2081+149.37C0.715065+129.064+38.3056+86.9465+64.6734+96.1237" fill="#000000" stroke-linecap="butt" opacity="1" stroke-linejoin="round"/>
<path stroke="#000000" stroke-width="1" d="M51.2293+122.355C49.7457+122.821+47.3141+125.63+48.544+127.486C50.2199+130.013+52.4045+126.808+52.54+125.273C52.6338+124.211+48.9863+125.112+48.2805+122.918L46.6772+120.528C49.5963+108.02+67.363+121.996+56.589+131.458C54.9236+132.921+52.8891+134.717+50.5503+134.635C38.279+134.203+42.3779+114.257+52.1397+118.29" fill="#000000" stroke-linecap="butt" opacity="1" stroke-linejoin="round"/>
</g>
<g opacity="1">
<path stroke="#c0c0c0" stroke-width="1" d="M148.106+125.429C152.089+120.126+158.733+116.595+163.85+113.646L163.85+113.646C161.378+118.087+152.366+122.598+148.594+125.865" fill="#c0c0c0" stroke-linecap="butt" opacity="1" stroke-linejoin="round"/>
<path stroke="#c0c0c0" stroke-width="1" d="M143.63+121.239C143.138+118.03+140.147+107.048+142.158+104.381L142.461+104.299C145.541+108.642+144.505+116.163+145.091+121.239" fill="#c0c0c0" stroke-linecap="butt" opacity="1" stroke-linejoin="round"/>
<path stroke="#c0c0c0" stroke-width="1" d="M139.426+126.908C135.995+124.385+125.087+117.292+124.841+112.854L125.129+112.234C126.704+111.539+139.495+124.352+139.95+126.345" fill="#c0c0c0" stroke-linecap="butt" opacity="1" stroke-linejoin="round"/>
<path stroke="#c0c0c0" stroke-width="1" d="M137.294+131.725C131.824+134.475+121.893+131.331+115.987+131.32L115.747+129.771C119.211+127.932+134.33+128.855+137.294+130.345" fill="#c0c0c0" stroke-linecap="butt" opacity="1" stroke-linejoin="round"/>
<path stroke="#c0c0c0" stroke-width="1" d="M138.757+137.724C135.309+141.226+132.285+145.03+128.993+148.199C128.118+149.041+126.802+148.553+126.011+149.403L126.011+149.403C129.906+145.219+132.035+139.528+137.655+136.836" fill="#c0c0c0" stroke-linecap="butt" opacity="1" stroke-linejoin="round"/>
<path stroke="#c0c0c0" stroke-width="1" d="M147.225+138.082C148.273+143.496+148.73+149.74+148.325+155.111L147.691+155.452C144.269+154.697+145.819+141.754+144.688+139.173" fill="#c0c0c0" stroke-linecap="butt" opacity="1" stroke-linejoin="round"/>
<path stroke="#c0c0c0" stroke-width="1" d="M151.069+132.784C153.228+133.978+165.775+142.389+166.434+143.772L166.282+144.749C162.761+147.051+152.791+136.698+150.189+134.675" fill="#c0c0c0" stroke-linecap="butt" opacity="1" stroke-linejoin="round"/>
<path stroke="#c0c0c0" stroke-width="1" d="M150.923+128.747C153.18+127.939+168.506+125.245+170.23+126.242L170.464+127.501C166.621+130.334+155.84+130.736+151.247+130.14" fill="#c0c0c0" stroke-linecap="butt" opacity="1" stroke-linejoin="round"/>
<path stroke="#c0c0c0" stroke-width="1" d="M148.106+125.429C152.089+120.126+158.733+116.595+163.85+113.646L163.85+113.646C161.378+118.087+152.366+122.598+148.594+125.865" fill="#c0c0c0" stroke-linecap="butt" opacity="1" stroke-linejoin="round"/>
<path stroke="#c0c0c0" stroke-width="1" d="M143.63+121.239C143.138+118.03+140.147+107.048+142.158+104.381L142.461+104.299C145.541+108.642+144.505+116.163+145.091+121.239" fill="#c0c0c0" stroke-linecap="butt" opacity="1" stroke-linejoin="round"/>
<path stroke="#c0c0c0" stroke-width="1" d="M139.426+126.908C135.995+124.385+125.087+117.292+124.841+112.854L125.129+112.234C126.704+111.539+139.495+124.352+139.95+126.345" fill="#c0c0c0" stroke-linecap="butt" opacity="1" stroke-linejoin="round"/>
<path stroke="#c0c0c0" stroke-width="1" d="M137.294+131.725C131.824+134.475+121.893+131.331+115.987+131.32L115.747+129.771C119.211+127.932+134.33+128.855+137.294+130.345" fill="#c0c0c0" stroke-linecap="butt" opacity="1" stroke-linejoin="round"/>
<path stroke="#c0c0c0" stroke-width="1" d="M138.757+137.724C135.309+141.226+132.285+145.03+128.993+148.199C128.118+149.041+126.802+148.553+126.011+149.403L126.011+149.403C129.906+145.219+132.035+139.528+137.655+136.836" fill="#c0c0c0" stroke-linecap="butt" opacity="1" stroke-linejoin="round"/>
<path stroke="#c0c0c0" stroke-width="1" d="M147.225+138.082C148.273+143.496+148.73+149.74+148.325+155.111L147.691+155.452C144.269+154.697+145.819+141.754+144.688+139.173" fill="#c0c0c0" stroke-linecap="butt" opacity="1" stroke-linejoin="round"/>
<path stroke="#c0c0c0" stroke-width="1" d="M151.069+132.784C153.228+133.978+165.775+142.389+166.434+143.772L166.282+144.749C162.761+147.051+152.791+136.698+150.189+134.675" fill="#c0c0c0" stroke-linecap="butt" opacity="1" stroke-linejoin="round"/>
<path stroke="#c0c0c0" stroke-width="1" d="M150.923+128.747C153.18+127.939+168.506+125.245+170.23+126.242L170.464+127.501C166.621+130.334+155.84+130.736+151.247+130.14" fill="#c0c0c0" stroke-linecap="butt" opacity="1" stroke-linejoin="round"/>
<path stroke="#000000" stroke-width="1" d="M155.672+104.759C145.45+104.084+141.321+104.565+131.455+110.87C103.681+128.618+122.94+157.685+149.782+152.466C182.498+146.103+169.91+94.3144+138.947+107.707L135.976+103.148C158.507+77.5188+194.677+120.608+170.748+149.259C167.127+153.595+163.702+156.913+158.44+158.479C152.379+160.282+146.591+161.384+140.319+160.233C138.326+159.867+126.786+156.347+123.831+154.379C93.3375+134.073+130.928+91.9551+157.296+101.132" fill="#000000" stroke-linecap="butt" opacity="1" stroke-linejoin="round"/>
<path stroke="#000000" stroke-width="1" d="M143.852+127.363C142.368+127.829+139.937+130.639+141.166+132.494C142.842+135.022+145.027+131.817+145.162+130.282C145.256+129.219+141.609+130.121+140.903+127.926L139.3+125.537C142.219+113.028+159.985+127.005+149.211+136.467C147.546+137.93+145.512+139.726+143.173+139.643C130.901+139.212+135+119.266+144.762+123.299" fill="#000000" stroke-linecap="butt" opacity="1" stroke-linejoin="round"/>
<path stroke="#000000" stroke-width="1" d="M155.672+104.759C145.45+104.084+141.321+104.565+131.455+110.87C103.681+128.618+122.94+157.685+149.782+152.466C182.498+146.103+169.91+94.3144+138.947+107.707L135.976+103.148C158.507+77.5188+194.677+120.608+170.748+149.259C167.127+153.595+163.702+156.913+158.44+158.479C152.379+160.282+146.591+161.384+140.319+160.233C138.326+159.867+126.786+156.347+123.831+154.379C93.3375+134.073+130.928+91.9551+157.296+101.132" fill="#000000" stroke-linecap="butt" opacity="1" stroke-linejoin="round"/>
<path stroke="#000000" stroke-width="1" d="M143.852+127.363C142.368+127.829+139.937+130.639+141.166+132.494C142.842+135.022+145.027+131.817+145.162+130.282C145.256+129.219+141.609+130.121+140.903+127.926L139.3+125.537C142.219+113.028+159.985+127.005+149.211+136.467C147.546+137.93+145.512+139.726+143.173+139.643C130.901+139.212+135+119.266+144.762+123.299" fill="#000000" stroke-linecap="butt" opacity="1" stroke-linejoin="round"/>
</g>
</g>
<g id="Layer 3" vectornator:layerName="Layer 3">
<g opacity="1">
<path d="M102.734+102.376L99.0121+104.072L88.2295+76.7468L91.9514+75.0515L102.734+102.376Z" opacity="1" fill="#6b6b6b"/>
<path d="M84.8621+82.1717L83.2841+78.1729L96.4242+72.1875L98.0021+76.1863L84.8621+82.1717Z" opacity="1" fill="#3a3a3a"/>
</g>
<path d="M17.4587+116.679C17.4587+116.679+33.4952+86.7804+62.0025+88.2966C76.1947+89.0515+87.9981+104.904+92.9161+116.83C96.1923+124.775+102.506+125.549+115.539+129.059C128.572+132.569+144.004+140.319+148.42+136.004C149.849+134.608+153.41+118.06+137.319+124.379C121.229+130.698+126.53+99.2249+127.619+98.3953C142.59+86.9934+165.553+78.5144+181.301+114.717C181.301+114.717+187.203+116.679+186.5+110.64C185.798+104.602+152.355+68.8213+136.195+82.5597L121.582+69.1232L124.532+62.6314L120.036+61.1217L99.2394+91.1651C99.2394+91.1651+77.8809+81.6539+66.78+62.7824L69.7309+51.4595C69.7309+51.4595+91.0894+54.026+98.1153+40.1366L100.504+34.5506L94.0403+36.0604C94.0403+36.0604+88.9817+47.3833+70.9955+46.4774C53.0094+45.5716+52.5879+33.6448+52.5879+33.6448L44.4379+33.4938L42.7517+42.7031C42.7517+42.7031+46.4051+47.6852+61.1594+51.7614L56.6628+77.1247C56.6628+77.1247+10.7767+95.1025+11.838+114.868C12.2596+122.718+17.4587+116.679+17.4587+116.679Z" opacity="1" fill="#FF8F00"/>
<g opacity="1">
<path d="M102.938+112.625L106.703+111.044L116.758+138.687L112.993+140.268L102.938+112.625Z" opacity="1" fill="#6b6b6b"/>
<path d="M120.268+133.367L121.739+137.413L108.446+142.994L106.975+138.949L120.268+133.367Z" opacity="1" fill="#3a3a3a"/>
</g>
<path d="M103.86+62.0565C103.86+59.084+111.137+56.6743+120.114+56.6743C129.09+56.6743+130.116+59.8529+130.116+62.8254C130.116+65.7979+129.09+67.4387+120.114+67.4387C111.137+67.4387+103.86+65.029+103.86+62.0565Z" opacity="1" fill="#3a3a3a"/>
</g>
</svg>
